X:258
T:Up On The Hill
R:jig
C:Bruce Osborne (April 2006)
Z:abc by bosborne@kos.net
M:6/8
L:1/8
K:Dmaj
A|dAF AFD|dAF D2 F|A,CE GFE|DFB ABc|\
dAF AFD|dAF D2 F|A,CE GFE|FDD D2:|
|:A|def fed|afd dcd|eAA fAA|gAA e2 A|\
def fed|afd dcd|eAe aec|ABc d2:|
